client/public/game_modes/bouncing_ball/frame10.svg

<svg xmlns="http://www.w3.org/2000/svg" width="437" height="483" fill="none"><path fill="#949494" d="M53 361h20v20H53v-20Zm0 20h20v20H53v-20Zm20 20h20v20H73v-20Zm120 40h20v20h-20v-20Zm60 0h40v20h-40v-20Zm40 0h20v20h-20v-20Z"/><path fill="#949494" d="M253 441h20v20h-20v-20Zm-20 0h20v20h-20v-20Zm-20 0h20v20h-20v-20ZM93 381h20v20H93v-20Zm80 60h20v20h-20v-20Zm-20-20h20v20h-20v-20Zm0 20h20v20h-20v-20Zm-20 0h20v20h-20v-20Zm-20 0h20v20h-20v-20Zm0-20h20v20h-20v-20Zm-20 0h20v20H93v-20Zm0-20h20v20H93v-20Zm-20 20h20v20H73v-20Zm-20-20h20v20H53v-20Zm80 20h20v20h-20v-20Zm-20-20h20v20h-20v-20Zm-40-20h20v20H73v-20Zm0-20h20v20H73v-20Zm-20-20h20v20H53v-20Z"/><path stroke="#949494" stroke-width="5" d="M53 361h20m-20 0v20m0-20v-20h20v20m0 0v20m0-20h20v20m-20 0H53m20 0v20m0-20h20m-40 0v20m20 0H53m20 0h20m-20 0v20m-20-20v20h20m20-20v20m0-20h20m-20 0v-20m0 40H73m20 0h20m-20 0v20m-20-20v20h20m100 0h20m-20 0v20m0-20h-20m40 0v20m0-20h20m-20 20h-20m20 0h20m-40 0h-20m80-20h40m-40 0v20m0-20h20v20h-20m0-20h-20m60 0v20m0-20h20v20h-20m0 0h-40m0 0h-20m0-20v20M93 381h20v20m0 0v20m0-20h20v20m40 20v20m0-20v-20h-20m20 20h-20m20 20h-20m0-40v20m0-20h-20m20 20v20m0-20h-20m20 20h-20m0-20v20m0-20h-20m20 0v-20m0 40h-20v-20m0 0v-20m0 20H93m20-20h20"/><path fill="#EDEDED" d="M273 341h20v20h-20v-20Zm0-20h20v20h-20v-20Zm-20 0h20v20h-20v-20Zm0-20h20v20h-20v-20Zm-20 0h20v20h-20v-20Zm0 20h20v20h-20v-20Z"/><path stroke="#EDEDED" stroke-width="5" d="M273 341h20m-20 0v20h20v-20m-20 0v-20m0 20h-20m40 0v-20h-20m0 0h-20m20 0v-20h-20m0 20v20m0-20v-20m0 20h-20m20 20h-20v-20m20-20h-20v20"/><path fill="#D9D9D9" d="M73 341h20v20H73v-20Zm20 0h20v20H93v-20Zm-20-20h20v20H73v-20Zm20 61h20v19H93v-19Zm20 0h20v19h-20v-19Zm40 19h20v20h-20v-20Zm20 0h20v20h-20v-20Zm-40 0h20v20h-20v-20Zm60 0h20v20h-20v-20Zm20 0h20v20h-20v-20Zm60 20h20v20h-20v-20Zm-60 0h20v20h-20v-20Zm20 0h20v20h-20v-20Zm-40 0h20v20h-20v-20Zm60 0h20v20h-20v-20Zm-80 0h20v20h-20v-20Zm120 0h20v20h-20v-20Zm20 0h20v20h-20v-20Zm20 0h20v20h-20v-20Zm0-20h20v20h-20v-20Zm-180-19h20v19h-20v-19Zm20 0h20v19h-20v-19Zm-40 0h20v19h-20v-19Zm60 0h20v19h-20v-19Zm20 0h20v19h-20v-19Zm120 0h20v19h-20v-19Zm-180-21h20v21h-20v-21Zm20 0h20v21h-20v-21Zm-40 0h20v21h-20v-21Zm60 0h20v21h-20v-21Zm20 0h20v21h-20v-21Zm120 0h20v21h-20v-21Zm-180-20h20v20h-20v-20Zm20 0h20v20h-20v-20Zm-40 0h20v20h-20v-20Zm60 0h20v20h-20v-20Zm20 0h20v20h-20v-20Zm20 60h20v20h-20v-20Zm80 0h20v20h-20v-20Zm-80-19h20v19h-20v-19Zm80 0h20v19h-20v-19Zm-60 19h20v20h-20v-20Zm20 0h20v20h-20v-20Zm20 0h20v20h-20v-20Zm-40-19h20v19h-20v-19Zm20 0h20v19h-20v-19Zm20 0h20v19h-20v-19Zm-60-21h20v21h-20v-21Zm20 0h20v21h-20v-21Zm20 0h20v21h-20v-21Zm40 0h20v21h-20v-21Zm-20 0h20v21h-20v-21Zm-60-20h20v20h-20v-20Zm20 0h20v20h-20v-20Zm60 0h20v20h-20v-20Zm-20 0h20v20h-20v-20Zm40 0h20v20h-20v-20Zm-20-20h20v20h-20v-20Zm-20 0h20v20h-20v-20Zm40 0h20v20h-20v-20Zm-40-21h20v21h-20v-21Zm-20 0h20v21h-20v-21Zm40 0h20v21h-20v-21Zm-20-20h20v20h-20v-20Zm-20 0h20v20h-20v-20Zm40 0h20v20h-20v-20Zm-80 0h20v20h-20v-20Zm-20 0h20v20h-20v-20Zm40 0h20v20h-20v-20Zm100 121h20v20h-20v-20Zm0-19h20v19h-20v-19Zm0-21h20v21h-20v-21Zm0-20h20v20h-20v-20Zm-240 20h20v21h-20v-21Zm0-20h20v20h-20v-20Zm40-20h20v20h-20v-20Zm20 0h20v20h-20v-20Zm-40 0h20v20h-20v-20Zm60 0h20v20h-20v-20Zm20 0h20v20h-20v-20Zm-100 0h20v20h-20v-20Zm40-21h20v21h-20v-21Zm20 0h20v21h-20v-21Zm-40 0h20v21h-20v-21Zm60 0h20v21h-20v-21Zm20 0h20v21h-20v-21Zm-100 0h20v21h-20v-21Zm40-20h20v20h-20v-20Zm20 0h20v20h-20v-20Zm-40 0h20v20h-20v-20Zm60 0h20v20h-20v-20Zm-80 0h20v20h-20v-20Zm-20 20h20v21H93v-21Zm0 61h20v21H93v-21Zm0-40h20v20H93v-20Zm20-61h20v20h-20v-20Zm80 0h20v20h-20v-20Zm20 0h20v20h-20v-20Zm-40 0h20v20h-20v-20Zm60 0h20v20h-20v-20Zm40 0h20v20h-20v-20Zm20 0h20v20h-20v-20Zm-40 0h20v20h-20v-20Zm-100 0h20v20h-20v-20Zm-20 0h20v20h-20v-20Zm-40 20h20v20H93v-20Z"/><path stroke="#D9D9D9" stroke-width="5" d="M73 341h20m-20 0v20h20m-20-20v-20h20m0 20v20m0-20h20m-20 0v-20m0 40h20m-20 0v21m20-41v20m0-20h20m-20 0v-20m0 40h20m-20 0v21m-20-61h20m-20 0v-21m0 82h20m-20 0v19h20m0-19v19m0-19h20m-20 19h20m0-19v19m0-19h20m-20 0v-21m0 40h20m-20 0v20h20m0-20h20m-20 0v20m0-20v-19m20 19v20m0-20h20m-20 0v-19m0 39h-20m20 0h20m-20 0v20h20m0-40v20m0-20h20m-20 0v-19m0 39h20m-20 0v20m20-40v20m0-20h20m-20 0v-19m0 39h20m-20 0v20m20-40v20m0-20v-19m0 19h20m-20 20v20m0-20h20m20 0h20m-20 0v20m0-20h-20m20 0v-20m20 20v20m0-20h20m-20 0v-20m0 40h-20m20 0h20m-40 0h-20m-20 0h-20m20 0h20m-40 0h-20m60-20v20m0-20v-20m60 20v20m0-20h20m-20 0v-20m0 40h20m0-20v20m0-20h20m-20 0v-20m0 40h20v-20m0 0v-20m0 20h20v-20m-40 0h20m-20 0v-19m0 19h-20m40 0v-19m0 19h20m-220-19h20m-20 0v-21m20 21h20m-20 0v-21m20 21h20m-20 0v-21m20 21h20m-20 0v-21m20 21v-21m0 21h20m80 0h20m-20 0v-21m0 21h-20m40 0v-21m0 21h20m-220-21h20m-20 0h-20m20 0v-20m20 20h20m-20 0v-20m20 20h20m-20 0v-20m-60 20v-20m80 20h20m-20 0v-20m20 20v-20m0 20h20m80 0h20m-20 0h-20m20 0v-20m20 20v-20m0 20h20m-220-20h20m-20 0h-20m20 0v-20m20 20h20m-20 0v-20m20 20h20m-20 0v-20m-60 20v-20m80 20h20m-20 0v-20m20 20h20m-20 0v-20m20 80v-19m0 19h20m40 0v-19m0 19h-20m-40-19h20m-20 0v-21m60 21h-20m20 0v-21m-40 40h20m-20 0v-19m20 19v-19m-20 0h20m-20 0v-21m20 21v-21m-40 0h20m-20 0v-20m20 20h20m-20 0v-20h-20m40 20h20m-20 0v-20m20 20v-20m0 0h20m-20 0h-20m20 0v-20m20 20h20m-20 0v-20m-40 20v-20m60 20v-20h-20m20 20h20v20m-60-40h20m-20 0h-20m20 0v-21m20 21v-21m-40 21v-21m0 21h-20v-21m20 0h20m-20 0h-20m20 0v-20m20 20h20m-20 0v-20m-40 20v-20m0 20h-20m80 0v-20h-20m-20 0h20m-20 0h-20m20 0v-20m20 20v-20h-20m-20 20h-20m20 0v-20m-40 20h20m-20 0v20m0-20h-20m20 0v-20m20 20v20m0-20v-20m0 40h-20m0 0h-20m20 0v21m-20-41v20m0-20h-20m20 0v-20m0 40h-20m20 0v21m160 80v-19m0 0v-21m-220-40h20m-20 0h-20m20 0v-21m20 21h20m-20 0v-21m20 21h20m-20 0v-21m-60 21h-20m20 0v-21m80 21h20m-120 0v-21m40 0h20m-20 0h-20m20 0v-20m20 20h20m-20 0v-20m20 20v-20m-60 20h-20m20 0v-20m-20 20v-20m0 20H93m60-20h20m-20 0h-20m20 0v-20m20 20h20m-20 0v-20m20 20v-20m-60 20h-20m20 0v-20m-20 20v-20h20m-20 20H93v20m40-40h20m40 0h20m-20 0h-20m40 0h20m0 0h20m-80 0h-20m100 0h20m0 0h20"/></svg>

<svg width="437" height="483" viewBox="0 0 437 483" fill="none" xmlns="http://www.w3.org/2000/svg">
<path d="M53 361H73V381H53V361Z" fill="#949494"/>
<path d="M53 381H73V401H53V381Z" fill="#949494"/>
<path d="M73 401H93V421H73V401Z" fill="#949494"/>
<path d="M193 441H213V461H193V441Z" fill="#949494"/>
<path d="M253 441H293V461H253V441Z" fill="#949494"/>
<path d="M293 441H313V461H293V441Z" fill="#949494"/>
<path d="M253 441H273V461H253V441Z" fill="#949494"/>
<path d="M233 441H253V461H233V441Z" fill="#949494"/>
<path d="M213 441H233V461H213V441Z" fill="#949494"/>
<path d="M93 381H113V401H93V381Z" fill="#949494"/>
<path d="M173 441H193V461H173V441Z" fill="#949494"/>
<path d="M153 421H173V441H153V421Z" fill="#949494"/>
<path d="M153 441H173V461H153V441Z" fill="#949494"/>
<path d="M133 441H153V461H133V441Z" fill="#949494"/>
<path d="M113 441H133V461H113V441Z" fill="#949494"/>
<path d="M113 421H133V441H113V421Z" fill="#949494"/>
<path d="M93 421H113V441H93V421Z" fill="#949494"/>
<path d="M93 401H113V421H93V401Z" fill="#949494"/>
<path d="M73 421H93V441H73V421Z" fill="#949494"/>
<path d="M53 401H73V421H53V401Z" fill="#949494"/>
<path d="M133 421H153V441H133V421Z" fill="#949494"/>
<path d="M113 401H133V421H113V401Z" fill="#949494"/>
<path d="M73 381H93V401H73V381Z" fill="#949494"/>
<path d="M73 361H93V381H73V361Z" fill="#949494"/>
<path d="M53 341H73V361H53V341Z" fill="#949494"/>
<path d="M53 361H73M53 361V381M53 361V341H73V361M73 361V381M73 361H93V381M73 381H53M73 381V401M73 381H93M53 381V401M73 401H53M73 401H93M73 401V421M53 401V421H73M93 401V421M93 401H113M93 401V381M93 421H73M93 421H113M93 421V441M73 421V441H93M193 441H213M193 441V461M193 441H173M213 441V461M213 441H233M213 461H193M213 461H233M193 461H173M253 441H293M253 441V461M253 441H273V461H253M253 441H233M293 441V461M293 441H313V461H293M293 461H253M253 461H233M233 441V461M93 381H113V401M113 401V421M113 401H133V421M173 441V461M173 441V421H153M173 441H153M173 461H153M153 421V441M153 421H133M153 441V461M153 441H133M153 461H133M133 441V461M133 441H113M133 441V421M133 461H113V441M113 441V421M113 441H93M113 421H133" stroke="#949494" stroke-width="5"/>
<path d="M273 341H293V361H273V341Z" fill="#EDEDED"/>
<path d="M273 321H293V341H273V321Z" fill="#EDEDED"/>
<path d="M253 321H273V341H253V321Z" fill="#EDEDED"/>
<path d="M253 301H273V321H253V301Z" fill="#EDEDED"/>
<path d="M233 301H253V321H233V301Z" fill="#EDEDED"/>
<path d="M233 321H253V341H233V321Z" fill="#EDEDED"/>
<path d="M273 341H293M273 341V361H293V341M273 341V321M273 341H253M293 341V321H273M273 321H253M273 321V301H253M253 321V341M253 321V301M253 321H233M253 341H233V321M253 301H233V321" stroke="#EDEDED" stroke-width="5"/>
<path d="M73 341H93V361H73V341Z" fill="#D9D9D9"/>
<path d="M93 341H113V361H93V341Z" fill="#D9D9D9"/>
<path d="M73 321H93V341H73V321Z" fill="#D9D9D9"/>
<path d="M93 382H113V401H93V382Z" fill="#D9D9D9"/>
<path d="M113 382H133V401H113V382Z" fill="#D9D9D9"/>
<path d="M153 401H173V421H153V401Z" fill="#D9D9D9"/>
<path d="M173 401H193V421H173V401Z" fill="#D9D9D9"/>
<path d="M133 401H153V421H133V401Z" fill="#D9D9D9"/>
<path d="M193 401H213V421H193V401Z" fill="#D9D9D9"/>
<path d="M213 401H233V421H213V401Z" fill="#D9D9D9"/>
<path d="M273 421H293V441H273V421Z" fill="#D9D9D9"/>
<path d="M213 421H233V441H213V421Z" fill="#D9D9D9"/>
<path d="M233 421H253V441H233V421Z" fill="#D9D9D9"/>
<path d="M193 421H213V441H193V421Z" fill="#D9D9D9"/>
<path d="M253 421H273V441H253V421Z" fill="#D9D9D9"/>
<path d="M173 421H193V441H173V421Z" fill="#D9D9D9"/>
<path d="M293 421H313V441H293V421Z" fill="#D9D9D9"/>
<path d="M313 421H333V441H313V421Z" fill="#D9D9D9"/>
<path d="M333 421H353V441H333V421Z" fill="#D9D9D9"/>
<path d="M333 401H353V421H333V401Z" fill="#D9D9D9"/>
<path d="M153 382H173V401H153V382Z" fill="#D9D9D9"/>
<path d="M173 382H193V401H173V382Z" fill="#D9D9D9"/>
<path d="M133 382H153V401H133V382Z" fill="#D9D9D9"/>
<path d="M193 382H213V401H193V382Z" fill="#D9D9D9"/>
<path d="M213 382H233V401H213V382Z" fill="#D9D9D9"/>
<path d="M333 382H353V401H333V382Z" fill="#D9D9D9"/>
<path d="M153 361H173V382H153V361Z" fill="#D9D9D9"/>
<path d="M173 361H193V382H173V361Z" fill="#D9D9D9"/>
<path d="M133 361H153V382H133V361Z" fill="#D9D9D9"/>
<path d="M193 361H213V382H193V361Z" fill="#D9D9D9"/>
<path d="M213 361H233V382H213V361Z" fill="#D9D9D9"/>
<path d="M333 361H353V382H333V361Z" fill="#D9D9D9"/>
<path d="M153 341H173V361H153V341Z" fill="#D9D9D9"/>
<path d="M173 341H193V361H173V341Z" fill="#D9D9D9"/>
<path d="M133 341H153V361H133V341Z" fill="#D9D9D9"/>
<path d="M193 341H213V361H193V341Z" fill="#D9D9D9"/>
<path d="M213 341H233V361H213V341Z" fill="#D9D9D9"/>
<path d="M233 401H253V421H233V401Z" fill="#D9D9D9"/>
<path d="M313 401H333V421H313V401Z" fill="#D9D9D9"/>
<path d="M233 382H253V401H233V382Z" fill="#D9D9D9"/>
<path d="M313 382H333V401H313V382Z" fill="#D9D9D9"/>
<path d="M253 401H273V421H253V401Z" fill="#D9D9D9"/>
<path d="M273 401H293V421H273V401Z" fill="#D9D9D9"/>
<path d="M293 401H313V421H293V401Z" fill="#D9D9D9"/>
<path d="M253 382H273V401H253V382Z" fill="#D9D9D9"/>
<path d="M273 382H293V401H273V382Z" fill="#D9D9D9"/>
<path d="M293 382H313V401H293V382Z" fill="#D9D9D9"/>
<path d="M233 361H253V382H233V361Z" fill="#D9D9D9"/>
<path d="M253 361H273V382H253V361Z" fill="#D9D9D9"/>
<path d="M273 361H293V382H273V361Z" fill="#D9D9D9"/>
<path d="M313 361H333V382H313V361Z" fill="#D9D9D9"/>
<path d="M293 361H313V382H293V361Z" fill="#D9D9D9"/>
<path d="M233 341H253V361H233V341Z" fill="#D9D9D9"/>
<path d="M253 341H273V361H253V341Z" fill="#D9D9D9"/>
<path d="M313 341H333V361H313V341Z" fill="#D9D9D9"/>
<path d="M293 341H313V361H293V341Z" fill="#D9D9D9"/>
<path d="M333 341H353V361H333V341Z" fill="#D9D9D9"/>
<path d="M313 321H333V341H313V321Z" fill="#D9D9D9"/>
<path d="M293 321H313V341H293V321Z" fill="#D9D9D9"/>
<path d="M333 321H353V341H333V321Z" fill="#D9D9D9"/>
<path d="M293 300H313V321H293V300Z" fill="#D9D9D9"/>
<path d="M273 300H293V321H273V300Z" fill="#D9D9D9"/>
<path d="M313 300H333V321H313V300Z" fill="#D9D9D9"/>
<path d="M293 280H313V300H293V280Z" fill="#D9D9D9"/>
<path d="M273 280H293V300H273V280Z" fill="#D9D9D9"/>
<path d="M313 280H333V300H313V280Z" fill="#D9D9D9"/>
<path d="M233 280H253V300H233V280Z" fill="#D9D9D9"/>
<path d="M213 280H233V300H213V280Z" fill="#D9D9D9"/>
<path d="M253 280H273V300H253V280Z" fill="#D9D9D9"/>
<path d="M353 401H373V421H353V401Z" fill="#D9D9D9"/>
<path d="M353 382H373V401H353V382Z" fill="#D9D9D9"/>
<path d="M353 361H373V382H353V361Z" fill="#D9D9D9"/>
<path d="M353 341H373V361H353V341Z" fill="#D9D9D9"/>
<path d="M113 361H133V382H113V361Z" fill="#D9D9D9"/>
<path d="M113 341H133V361H113V341Z" fill="#D9D9D9"/>
<path d="M153 321H173V341H153V321Z" fill="#D9D9D9"/>
<path d="M173 321H193V341H173V321Z" fill="#D9D9D9"/>
<path d="M133 321H153V341H133V321Z" fill="#D9D9D9"/>
<path d="M193 321H213V341H193V321Z" fill="#D9D9D9"/>
<path d="M213 321H233V341H213V321Z" fill="#D9D9D9"/>
<path d="M113 321H133V341H113V321Z" fill="#D9D9D9"/>
<path d="M153 300H173V321H153V300Z" fill="#D9D9D9"/>
<path d="M173 300H193V321H173V300Z" fill="#D9D9D9"/>
<path d="M133 300H153V321H133V300Z" fill="#D9D9D9"/>
<path d="M193 300H213V321H193V300Z" fill="#D9D9D9"/>
<path d="M213 300H233V321H213V300Z" fill="#D9D9D9"/>
<path d="M113 300H133V321H113V300Z" fill="#D9D9D9"/>
<path d="M153 280H173V300H153V280Z" fill="#D9D9D9"/>
<path d="M173 280H193V300H173V280Z" fill="#D9D9D9"/>
<path d="M133 280H153V300H133V280Z" fill="#D9D9D9"/>
<path d="M193 280H213V300H193V280Z" fill="#D9D9D9"/>
<path d="M113 280H133V300H113V280Z" fill="#D9D9D9"/>
<path d="M93 300H113V321H93V300Z" fill="#D9D9D9"/>
<path d="M93 361H113V382H93V361Z" fill="#D9D9D9"/>
<path d="M93 321H113V341H93V321Z" fill="#D9D9D9"/>
<path d="M113 260H133V280H113V260Z" fill="#D9D9D9"/>
<path d="M193 260H213V280H193V260Z" fill="#D9D9D9"/>
<path d="M213 260H233V280H213V260Z" fill="#D9D9D9"/>
<path d="M173 260H193V280H173V260Z" fill="#D9D9D9"/>
<path d="M233 260H253V280H233V260Z" fill="#D9D9D9"/>
<path d="M273 260H293V280H273V260Z" fill="#D9D9D9"/>
<path d="M293 260H313V280H293V260Z" fill="#D9D9D9"/>
<path d="M253 260H273V280H253V260Z" fill="#D9D9D9"/>
<path d="M153 260H173V280H153V260Z" fill="#D9D9D9"/>
<path d="M133 260H153V280H133V260Z" fill="#D9D9D9"/>
<path d="M93 280H113V300H93V280Z" fill="#D9D9D9"/>
<path d="M73 341H93M73 341V361H93M73 341V321H93M93 341V361M93 341H113M93 341V321M93 361H113M93 361V382M113 341V361M113 341H133M113 341V321M113 361H133M113 361V382M93 321H113M93 321V300M93 382H113M93 382V401H113M113 382V401M113 382H133M113 401H133M133 382V401M133 382H153M133 382V361M133 401H153M133 401V421H153M153 401H173M153 401V421M153 401V382M173 401V421M173 401H193M173 401V382M173 421H153M173 421H193M173 421V441H193M193 401V421M193 401H213M193 401V382M193 421H213M193 421V441M213 401V421M213 401H233M213 401V382M213 421H233M213 421V441M233 401V421M233 401V382M233 401H253M233 421V441M233 421H253M273 421H293M273 421V441M273 421H253M273 421V401M293 421V441M293 421H313M293 421V401M293 441H273M293 441H313M273 441H253M233 441H213M233 441H253M213 441H193M253 421V441M253 421V401M313 421V441M313 421H333M313 421V401M313 441H333M333 421V441M333 421H353M333 421V401M333 441H353V421M353 421V401M353 421H373V401M333 401H353M333 401V382M333 401H313M353 401V382M353 401H373M153 382H173M153 382V361M173 382H193M173 382V361M193 382H213M193 382V361M213 382H233M213 382V361M233 382V361M233 382H253M333 382H353M333 382V361M333 382H313M353 382V361M353 382H373M153 361H173M153 361H133M153 361V341M173 361H193M173 361V341M193 361H213M193 361V341M133 361V341M213 361H233M213 361V341M233 361V341M233 361H253M333 361H353M333 361H313M333 361V341M353 361V341M353 361H373M153 341H173M153 341H133M153 341V321M173 341H193M173 341V321M193 341H213M193 341V321M133 341V321M213 341H233M213 341V321M233 341H253M233 341V321M253 401V382M253 401H273M313 401V382M313 401H293M253 382H273M253 382V361M313 382H293M313 382V361M273 401H293M273 401V382M293 401V382M273 382H293M273 382V361M293 382V361M253 361H273M253 361V341M273 361H293M273 361V341H253M293 361H313M293 361V341M313 361V341M313 341H333M313 341H293M313 341V321M333 341H353M333 341V321M293 341V321M353 341V321H333M353 341H373V361M313 321H333M313 321H293M313 321V300M333 321V300M293 321V300M293 321H273V300M293 300H313M293 300H273M293 300V280M313 300H333M313 300V280M273 300V280M273 300H253M333 300V280H313M293 280H313M293 280H273M293 280V260M313 280V260H293M273 280H253M273 280V260M233 280H253M233 280V300M233 280H213M233 280V260M253 280V300M253 280V260M253 300H233M233 300H213M233 300V321M213 280V300M213 280H193M213 280V260M213 300H193M213 300V321M373 401V382M373 382V361M153 321H173M153 321H133M153 321V300M173 321H193M173 321V300M193 321H213M193 321V300M133 321H113M133 321V300M213 321H233M113 321V300M153 300H173M153 300H133M153 300V280M173 300H193M173 300V280M193 300V280M133 300H113M133 300V280M113 300V280M113 300H93M153 280H173M153 280H133M153 280V260M173 280H193M173 280V260M193 280V260M133 280H113M133 280V260M113 280V260H133M113 280H93V300M133 260H153M193 260H213M193 260H173M213 260H233M233 260H253M173 260H153M253 260H273M273 260H293" stroke="#D9D9D9" stroke-width="5"/>
</svg>
